KINDER
CUT[HANS PHILIPPCHEN GEIG EINMAL]
REG[Europa, Mitteleuropa, Deutschland, Hessen; Schlesien]
KEY[K0556  16  F 2/4]
MEL[  5_.55_5_  3_1_1__
    -5_.11_3_  3__2__
    4_.44_4_  2_-7_-7__
    -5_.22_3_  2__1__ //] >>
FCT[Kinder -, Spiel - Lied]
